Papirus/64x64/apps/mx-updater.svg

<svg width="64" height="64" version="1.1" xmlns="http://www.w3.org/2000/svg">
 <defs>
  <style id="current-color-scheme" type="text/css">.ColorScheme-Text { color:#dfdfdf; } .ColorScheme-Highlight { color:#4285f4; }</style>
  <style id="current-color-scheme-3" type="text/css">.ColorScheme-Text { color:#dfdfdf; } .ColorScheme-Highlight { color:#4285f4; }</style>
  <style id="current-color-scheme-6" type="text/css">.ColorScheme-Text { color:#dfdfdf; } .ColorScheme-Highlight { color:#4285f4; }</style>
  <style id="current-color-scheme-5" type="text/css">.ColorScheme-Text { color:#dfdfdf; } .ColorScheme-Highlight { color:#4285f4; }</style>
  <style id="current-color-scheme-6-6" type="text/css">.ColorScheme-Text { color:#dfdfdf; } .ColorScheme-Highlight { color:#4285f4; }</style>
  <style id="current-color-scheme-3-2" type="text/css">.ColorScheme-Text { color:#dfdfdf; } .ColorScheme-Highlight { color:#4285f4; }</style>
 </defs>
 <path d="m31 53 18-7v-15l6-12-18-8-5 9-19 8v15z" style="fill:#60d938"/>
 <path d="m36.126953 8.0019531a3.0003 3.0003 0 0 0-2.810547 1.65625l-4.482422 8.9648439-16.921875 6.580078a3.0003 3.0003 0 0 0-0.0293 0.01367 3.0003 3.0003 0 0 0-1.882809 3.269533v15.513672a3.0003 3.0003 0 0 0 1.435547 2.560547l17.601562 10.755859a3.0003 3.0003 0 0 0 2.708985 0.589844 3.0003 3.0003 0 0 0 0.287109-0.08984 3.0003 3.0003 0 0 0 0.05469-0.01953l18-7a3.0003 3.0003 0 0 0 1.912107-2.79688v-17.169922l5.572266-9.287109a3.0003 3.0003 0 0 0-1.28711-4.253907l-19-8.9999995a3.0003 3.0003 0 0 0-1.158203-0.2871094zm1.242188 6.9667969 13.355468 6.326172-2.867187 4.779297-12.832031-6.416016zm-6.521485 9.310547 10.332032 5.166015-10.023438 3.339844-10.351562-4.599609zm-14.847656 8.337891 12 5.332031v11.701172l-12-7.332032zm30 1.544921v11.785157l-12 4.666015v-12.451172z" style="opacity:.2" class="ColorScheme-Text"/>
 <path class="ColorScheme-Text" d="m13 27 18-7m18 9-18-9 5-10 19 9zm-18 25 18-7v-18l-18 6m0 19v-19l-18-8v16z" style="fill:none;stroke-linecap:round;stroke-linejoin:round;stroke-width:6;stroke:currentColor"/>
 <path d="m36.126953 7.0019531a3.0003 3.0003 0 0 0-2.810547 1.65625l-4.482422 8.9648439-16.921875 6.580078a3.0003 3.0003 0 0 0-0.029297 0.013672 3.0003 3.0003 0 0 0-1.882812 3.269531v0.080078a3.0003 3.0003 0 0 1 1.882812-2.349609 3.0003 3.0003 0 0 1 0.029297-0.013672l16.921875-6.580078 4.482422-8.9648439a3.0003 3.0003 0 0 1 2.810547-1.65625 3.0003 3.0003 0 0 1 1.158203 0.2871094l19 8.9999995a3.0003 3.0003 0 0 1 1.669922 2.208985 3.0003 3.0003 0 0 0-1.669922-3.208985l-19-8.9999995a3.0003 3.0003 0 0 0-1.158203-0.2871094zm-0.701172 11.855469-0.40039 0.800781 12.832031 6.416016 2.867187-4.779297-0.466797-0.220703-2.40039 4-12.431641-6.216797zm-13.421875 8.861328-1.199218 0.466797 10.351562 4.599609 10.023438-3.339844-1.199219-0.599609-8.824219 2.939453-9.152344-4.066406zm-6.003906 13.599609v1l12 7.332032v-1l-12-7.332032zm30 3.628907-12 4.666015v1l12-4.666015v-1z" style="fill:currentColor;opacity:.2" class="ColorScheme-Text"/>
 <path d="m31 34-3-13-18-8 3 14z" style="fill:#60d938"/>
 <path d="m9.1269531 10.001953a3.0003 3.0003 0 0 0-3.0253906 3.771485l3.9999995 15a3.0003 3.0003 0 0 0 1.679688 1.96875l18 8a3.0003 3.0003 0 0 0 4.152344-3.371094l-3-14a3.0003 3.0003 0 0 0-1.648438-2.082032l-19-9a3.0003 3.0003 0 0 0-1.1582029-0.287109zm4.4394529 8.480469 11.810547 5.59375 1.455078 6.787109-11.302734-5.023437z" style="opacity:.2"/>
 <path d="m13 27-4-15 19 9 3 14z" style="fill:none;stroke-linecap:round;stroke-linejoin:round;stroke-width:6;stroke:#e4e4e4"/>
 <path d="m9.1269531 9.0019531a3.0003 3.0003 0 0 0-3.0820312 3.5019529 3.0003 3.0003 0 0 1 3.0820312-2.501953 3.0003 3.0003 0 0 1 1.1582029 0.287109l19 9a3.0003 3.0003 0 0 1 1.648438 2.082032l3 14a3.0003 3.0003 0 0 1 0.021484 0.134765 3.0003 3.0003 0 0 0-0.021484-1.134765l-3-14a3.0003 3.0003 0 0 0-1.648438-2.082032l-19-8.9999995a3.0003 3.0003 0 0 0-1.1582029-0.2871094zm4.4394529 9.4804689 1.962891 7.357422 11.302734 5.023437-0.236328-1.105469-11.066406-4.917968-1.658203-6.212891-0.304688-0.144531z" style="fill:#ffffff;opacity:.2"/>
</svg>

<svg xmlns="http://www.w3.org/2000/svg" width="64" height="64" version="1.1">
 <path style="fill:#60d938" d="M 31,53 49,46 V 31 L 55,19 37,11 32,20 13,28 V 43 Z"/>
 <path style="opacity:0.2;fill:none;stroke:#000000;stroke-width:6;stroke-linecap:round;stroke-linejoin:round" d="M 13,28 31,21 M 49,30 31,21 36,11 55,20 Z M 31,55 49,48 V 30 L 31,36 M 31,55 V 36 L 13,28 V 44 Z"/>
 <path style="fill:none;stroke:#dfdfdf;stroke-width:6;stroke-linecap:round;stroke-linejoin:round" d="M 13,27 31,20 M 49,29 31,20 36,9.9997 55,19 Z M 31,54 49,47 V 29 L 31,35 M 31,54 V 35 L 13,27 V 43 Z"/>
 <path style="opacity:0.2;fill:#dfdfdf" d="M 36.127,7.0017 A 3.0003,3.0003 0 0 0 33.316,8.6579 L 28.834,17.623 11.912,24.203 A 3.0003,3.0003 0 0 0 11.883,24.217 3.0003,3.0003 0 0 0 9.9998,27.486 V 27.566 A 3.0003,3.0003 0 0 1 11.883,25.217 3.0003,3.0003 0 0 1 11.912,25.203 L 28.834,18.623 33.316,9.6579 A 3.0003,3.0003 0 0 1 36.127,8.0017 3.0003,3.0003 0 0 1 37.285,8.2888 L 56.285,17.289 A 3.0003,3.0003 0 0 1 57.955,19.498 3.0003,3.0003 0 0 0 56.285,16.289 L 37.285,7.2888 A 3.0003,3.0003 0 0 0 36.127,7.0017 Z M 35.426,18.857 35.025,19.658 47.857,26.074 50.725,21.295 50.258,21.074 47.857,25.074 Z M 22.004,27.719 20.805,28.186 31.156,32.785 41.18,29.445 39.98,28.846 31.156,31.785 Z M 16,41.318 V 42.318 L 28,49.65 V 48.65 Z M 46,44.947 34,49.613 V 50.613 L 46,45.947 Z"/>
 <path style="fill:#60d938" d="M 31,34 28,21 9.9998,13 13,27 Z"/>
 <path style="opacity:0.2" d="M 9.1268,10.002 A 3.0003,3.0003 0 0 0 6.1014,13.773 L 10.102,28.773 A 3.0003,3.0003 0 0 0 11.781,30.742 L 29.781,38.742 A 3.0003,3.0003 0 0 0 33.934,35.371 L 30.934,21.371 A 3.0003,3.0003 0 0 0 29.285,19.289 L 10.285,10.289 A 3.0003,3.0003 0 0 0 9.1268,10.002 Z M 13.566,18.482 25.377,24.076 26.832,30.863 15.529,25.84 Z"/>
 <path style="fill:none;stroke:#e4e4e4;stroke-width:6;stroke-linecap:round;stroke-linejoin:round" d="M 13,27 8.9998,12 28,21 31,35 Z"/>
 <path style="opacity:0.2;fill:#ffffff" d="M 9.1268,9.0017 A 3.0003,3.0003 0 0 0 6.0447,12.504 3.0003,3.0003 0 0 1 9.1268,10.002 3.0003,3.0003 0 0 1 10.285,10.289 L 29.285,19.289 A 3.0003,3.0003 0 0 1 30.934,21.371 L 33.934,35.371 A 3.0003,3.0003 0 0 1 33.955,35.506 3.0003,3.0003 0 0 0 33.934,34.371 L 30.934,20.371 A 3.0003,3.0003 0 0 0 29.285,18.289 L 10.285,9.2888 A 3.0003,3.0003 0 0 0 9.1268,9.0017 Z M 13.566,18.482 15.529,25.84 26.832,30.863 26.596,29.758 15.529,24.84 13.871,18.627 Z"/>
</svg>
